X:1
T:Title
%%score ( 1 2 ) ( 3 4 )
L:1/8
Q:1/4=100
M:6/4
K:E
V:1 treble nm="Strings 1, Soprano"
V:2 treble 
V:3 bass nm="Strings 1, Bass"
V:4 bass 
V:1
 E4 [EF]2 [EG]4 [EG]2 | [DF]2 [EG]2 [B,F]2 [B,E]6 | [Ge]4 [Ac]2 [GB]4 [EG]2 | .G6 z6 | %4
 z6 .E6[K:treble] | [EG]4 E2 [DB]6 | B2 c2 [EB]2 [EG]4 E2 | [EG]4 [DF]2 [B,E]6 | %8
 [GB]2 [Ac]2 [Ge]2 [Fd]6 | B2 d2 [Af]2 [Ge]6 | [Ge]4 [Gc]2 [GB]4 [EG]2 | .G6 z6 | %12
 z6 .E6[K:treble] | [EG]4 E2 [DB]6 | B2 c2 [EB]2 [EG]4 E2 | [EG]4 [DF]2 [B,E]6 |] %16
V:2
 x12 | x12 | x12 | E2- [EF]2 E2 [DF]6 | B,2 [^A,C]2 [=A,D]2 G,2 B,2[K:treble] [B,E]2 | x12 | %6
 .E6 z6 | x12 | x12 | .A6 z6 | x12 | E2- [EF]2 E2 [DF]6 | %12
 B,2 [^A,C]2 [=A,D]2 G,2 B,2[K:treble] [B,E]2 | x12 | .E6 z6 | x12 |] %16
V:3
 [E,G,]4 [E,A,]2 [E,B,]4 [E,B,]2 | A,2 B,2 [B,,A,]2 [E,G,]6 | [E,B,]4 [E,E]2 [E,E]4 [E,B,]2 | %3
w: 1.~God~ om nis cient,~|God~ * all wise,~|With~ Thy~ ev er|
 B,2 A,2 [E,G,]2 [B,,B,]6 | B,,2- [B,,E,]2 [B,,F,]2 E,2 G,2 [E,G,]2 | [E,B,]4 [E,G,]2 [B,,F,]6 | %6
w: search * ing~ eyes,~|Look~ * with in~ * me,~|view~ my~ heart;~|
 G,2 A,2 [E,G,]2 [E,B,]4 [G,,B,]2 | [B,,B,]4 [B,,A,]2 [E,G,]6 | [E,E]4 [E,B,]2 B,6 | %9
w: Keep~ * me~ pure~ in~|eve ry~ part.~||
 [B,,B,]4 [B,,B,]2 [E,B,]6 | [E,B,]4 [E,E]2 [E,E]4 [E,B,]2 | [C,C]4 [F,^A,]2 [B,,B,]6 | %12
w: |||
 B,,2- [B,,E,]2 [B,,F,]2 E,2 G,2 [E,G,]2 | [E,B,]4 [E,G,]2 [B,,F,]6 | %14
w: ||
 G,2 A,2 [E,G,]2 B,2- [G,B,]2 [^A,C]2 | B,4 [B,,A,]2 [E,G,]6 |] %16
w: ||
V:4
 x12 | .B,,6 z6 | x12 | .E,6 z6 | .D,6 z6 | x12 | .E,6 z6 | x12 | x12 | x12 | x12 | x12 | .D,6 z6 | %13
 x12 | .E,6 .E,6 | x12 |] %16

